X:2251
T:Something with "Flute" in the name.
O:ireland
S:Irtrad, 1-98, Sean O'Malley
M:6/8
L:1/8
K:G
G/G/ GBd dc | BAGA BG | GGBd gg | gfdefd |
dggg f2 | Bcded2 | GGBB cd | cBAG A2 |
d/d/ gdd de | eecc c2 | edBB Bc | dcAA A2 |
d/d/ ggg fd | Bcde d2 | G/G/ GBB cd | cAGFG2 |]
